svg/Outline/arrow-down-circle.svg

<svg viewBox="0 0 24 24" xmlns="http://www.w3.org/2000/svg" width="24" height="24"><path d="M12.02 7.1a1 1 0 0 1 1 .9v6.08l2.41-2.4.07-.08a1 1 0 0 1 1.41 1.41l-.07.08-3 3q-.27.28-.53.5-.26.24-.68.4a2 2 0 0 1-1.24 0 2 2 0 0 1-.69-.4l-.53-.5-3-3a1 1 0 0 1 1.42-1.42l2.43 2.43V8a1 1 0 0 1 1-.9"/><path fill-rule="evenodd" d="M12 1A11 11 0 1 1 12 23A11 11 0 0 1 12 1M12 2.5A9.5 9.5 0 1 0 12 21.5A9.5 9.5 0 0 0 12 2.5" clip-rule="evenodd"/></svg>

<svg viewBox="0 0 24 24" xmlns="http://www.w3.org/2000/svg" width="24" height="24"><path d="M12.02 7.1A1 1 0 0 1 13.02 8L13.02 14.08L15.5 11.6A1 1 0 0 1 16.91 13.01L13.84 16.09Q13.57 16.37 13.31 16.59Q13.05 16.83 12.63 16.99A2 2 0 0 1 11.39 16.99A2 2 0 0 1 10.7 16.59L7.17 13.09A1 1 0 0 1 8.59 11.67L11.02 14.1L11.02 8A1 1 0 0 1 12.02 7.1"/><path fill-rule="evenodd" d="M12 1A11 11 0 1 1 12 23A11 11 0 0 1 12 1M12 2.5A9.5 9.5 0 1 0 12 21.5A9.5 9.5 0 0 0 12 2.5" clip-rule="evenodd"/></svg>
